!!!COM:	Bach, Johann Sebastian
!!!CDT:	1685/02/21/-1750/07/28/
!!!OTL@@DE:	Alles ist an Gottes Segen
!!!SCT:	BWV 263
!!!PC#:	128
!!!AGN:	chorale
**kern	**kern	**kern	**kern
*ICvox	*ICvox	*ICvox	*ICvox
*Ibass	*Itenor	*Ialto	*Isoprn
*I"Bass	*I"Tenor	*I"Alto	*I"Soprano
*clefF4	*clefGv2	*clefG2	*clefG2
*k[f#]	*k[f#]	*k[f#]	*k[f#]
*G:	*G:	*G:	*G:
*M4/4	*M4/4	*M4/4	*M4/4
*met(c)	*met(c)	*met(c)	*met(c)
*MM100	*MM100	*MM100	*MM100
=1-	=1-	=1-	=1-
4G	4B	4d	4g
4G	4B	4d	4g
4F#	4A	8d	4dd
.	.	4a	.
[4G	4B	.	4dd
.	.	8g	.
=2	=2	=2	=2
4G]	4e	4a	4cc
8F#L	4d	8aL	4dd
8DJ	.	8f#J	.
4G	4d	4g	4b
4GG;	4B;	4d;	4g;
=3	=3	=3	=3
8GGL	4d	4g	4b
8AA	.	.	.
8BB	4d	4g	4b
8CJ	.	.	.
8DL	4d	4g	4a
8E	.	.	.
8F#	4d	[4f#	4a
8DJ	.	.	.
=4	=4	=4	=4
8BBL	8dL	8f#L]	4g
8E	8BJ	16eL	.
.	.	16dJJ	.
8C#	4A	8eL	4a
8AAJ	.	8c#J	.
4D	4A	4d	4f#
4DD;	4F#;	4A;	4d;
=5	=5	=5	=5
8DL	8F#L	4d	4a
8E	8G	.	.
8F#	8A	4d	4a
8DJ	8F#J	.	.
4G	4G	4d	8bL
.	.	.	8aJ
4D	4A	[4d	8gL
.	.	.	8f#J
=6	=6	=6	=6
4A	4.A	8dL]	4.e
.	.	8BJ	.
4AA	.	4c#	.
.	16GLL	.	8d
.	16F#JJ	.	.
2D;	2F#;	2A;	2d;
=7	=7	=7	=7
8D	4f#	4a	4dd
4d	.	.	.
.	4f#	4a	4dd
8cnX	.	.	.
8BL	4f	8g#L	4dd
8A	.	8aJ	.
8G#	4e	[4b	4ee
8EJ	.	.	.
=8	=8	=8	=8
8AL	4e	8bL]	4cc
8GnX	.	16aL	.
.	.	16gnXJJ	.
8F#X	4d	4a	4dd
8DJ	.	.	.
4G	4d	4g	4b
4GG;	4B;	4d;	4g;
=9	=9	=9	=9
4G	8dL	4g	4b
.	8B	.	.
4G	8e	8gL	4b
.	8dJ	8f#J	.
4G	8c#L	8eL	4a
.	8AJ	8c#J	.
8F#L	[4d	[4f#	4a
8DJ	.	.	.
=10	=10	=10	=10
8BBL	8dL]	8f#L]	4g
8E	8BJ	16eL	.
.	.	16dJJ	.
8C#	4A	8eL	4a
8AAJ	.	8c#J	.
4D	4A	4d	4f#
4DD;	4F#;	4A;	4d;
=11	=11	=11	=11
8BBL	4G	8dL	4g
8EJ	.	8BJ	.
8DL	4d	4f#	4a
8CnXJ	.	.	.
8BBL	8dL	8gL	8bL
8AAJ	8c	8f#J	8ccJ
8GGL	8B	[4g	8ddL
8EJ	8cJ	.	8ccJ
=12	=12	=12	=12
4D	4d	4g]	4b
4DD	8.dL	4f#	8aL
.	.	.	8gJ
.	16cJk	.	.
2GG;	2B;	2d;	2g;
==	==	==	==
*-	*-	*-	*-
!!!hum2abc: -Q ''
!!!title: @{PC#}. @{OTL@@DE}
!!!YOR1: 371 vierstimmige Choralges&auml;nge von Johann Sebastian Bach, 
!!!YOR2: 4th ed. by Alfred D&ouml;rffel (Leipzig: Breitkopf und H&auml;rtel, 
!!!YOR2: c.1875). 178 pp. Plate "V.A.10".  reprint: J.S. Bach, 371 Four-Part 
!!!YOR4: Chorales (New York: Associated Music Publishers, Inc., c.1940).
!!!SMS: B&H, 4th ed, Alfred D&ouml;rffel, c.1875, plate V.A.10
!!!EED:  Craig Stuart Sapp
!!!EEV:  2009/05/22
